!!!SOCIAL_FUNCTION: war songs
!!!PDT:	1943
!!!LING_GROUP: Muskogean
!!!LANG: Non-Tone
Specific Region: Oklahoma, California, Mississippi, Louisiana, Texas, Alabama
!!!REG: Southeast
!!!COM: Anon.
!!!OTL: Victory Song
!!!ODT: <1933//
!!!MPN: Lysander Tubby
!!!MLC: Philadelphia, Mississippi, United States of America
!! Song was recorded in January 1933.
!!!AGN: monody
!!!AMT: irregular
!!!RWG: Transcribed pitches, durations, and meters are only approximate.
**kern
*ICvox
*Imale
*clefF4
*k[b-e-a-]
*M2/4
*MM52
=1-
4r
8.r
16A-
=2
12A-
12F
24B-
24B-
8.B-
16c
=3
8.B-
16A-
8A-
16F
16E-
=4
8.A-
16E-
8F
16F
16r
=5
16E-
8E-
16E-
16E-
16E-
8E-
=6
8F
8A-
16.F
32F
16.F
32E-
=7
16E-
8E-
16E-
16E-
16E-
16E-
16r
=8
16E-
16E-
8E-
16G-
(8G-
16E-)
*M7/8
=9
16E-
8E-
16E-
8E-
16E-
16r
*MM63
4e-
8e-
*M2/4
=10
8e-
16B-
16B-
8.B-
16c
=11
!! ritard
8.B-
16A-
8A-
16F
16E-
*MM52
=12
8.A-
16E-
16F
16F
16F
16r
=13
16E-
8E-
16E-
16E-
16E-
8E-
=14
8F
8A-
!! 16th changed to 32nd
32F
16.F
16.F
32E-
=15
16E-
8E-
16E-+
16E-
16E-
16E-
16r
=16
16E-
16E-
8E-
8G-
16.G-
32E-
=17
16E-
8E-
16E-
8E-
16E-
16r
==
*-
!!!CNT: Choctaw
!!!TXO: Choctaw
!!!OCY: United States
!!!OCL: Frances Densmore
!!!YOR: Frances Densmore, "Choctaw Music"
!!!YOR: Bulletin 136, page 127, No. 5
!!!PPR: Smithsonian Institution, Bureau of American Ethnology
!!!PPR: Government Printing Office
!!!PDT: 1943
!!!PPP: Washington, DC, United States of America
!!!YEC: Electronic Copyright 2000 David Huron
!!!YER: August 2000
!!!YEN: United States of America
!!!ENC: David Huron
!!!RDT: August 27, 2000
!!!EEV: Release 1.0
!!!AIN: vox
